X: 332
T: Arkansas Traveler
B: canberra pickers and fiddlers
B: good tune book
B: songs
B: traditional songs
B: tunes
M:4/4
L:1/8
R: reel
Q: 1/4=100
K:D
V:1 
A2 |: "D"dfed "G"B2B2 | "D"A2A2 d2d2 | "A"e2e2 f2f2 | efed B2A2 |
   |"D"dfed "G"B2B2 | "D"A2A2 d4 | "D"dcdA "G"BdAG |1 "A"F2E2"D"D2A2:|2 "A"F2E2D2 "D"fg||
   |: "D"agfa "G"gfeg | "D"fedf "A"e2A2 | "D"dcde "G"fefg | "D"afdf "A"e2fg |
   |"D"agfa "G"gfeg | "D"fedf "A"e2A2 |1 "D"dcdA "G"BdAG |1 "A"F2E2D2 "D"fg:|2 "A"F2E2D2 "D"A2 || 
W: Oh once upon a time in Arkansas
W: An old man sat in his little cabin door
W: And fiddled at a tune that he liked to hear
W: A jolly old tune that he played by ear
W: 
W: It was raining hard but the fiddler didn’t care
W: He sawed away at the popular air
W: Though his rooftop leaked like a waterfall
W: That didn’t seem to bother the old man at all
W: 
W: A traveler was riding by that day
W: And stopped to hear him a-fiddling away
W: The cabin was afloat and his feet were wet
W: But the old man still didn’t seem to fret
W: 
W: So the stranger said Now the way it seems to me
W: You’d better mend your roof said he
W: But the old man said as he played away
W: I couldn’t mend it now it’s a rainy day
W: 
W: The traveler replied that’s all quite true
W: But this I think is the thing for you to do
W: Get busy on a day that is fair and bright
W: Then patch the old roof till it’s good and tight
W: 
W: But the old man kept on a-playing at his reel
W: And tapped the ground with his leathery heel
W: Get along said he for you give me a pain
W: My cabin never leaks when it doesn’t rain
% abcbook-tune_id 63ae8f1c89025064e80480e3
% abcbook-tune_composer_id 
% abcbook-link-0 https://www.youtube.com/watch?v=PB3tSSlq130
% abcbook-link-title-0 &quot;Arkansas Traveler&quot;  -  Katrina Nicolayeff  -  Camp Sumner Sessions
% abcbook-link-start-at-0 35
% abcbook-link-end-at-0 316
% abcbook-boost 0
% abcbook-difficulty 1
% abcbook-tags bega session,canberra pickers and fiddlers,good tune book,jims roots and blues,nick hutten,old time tunes,ralph cullen,steve ryan,© free
% abcbook-tablature 
% abcbook-transpose 
% abcbook-tuning ADAE
% abcbook-lastupdated 1694555071534
% abcbook-src-url https://tunebook.net/scrape/traditional%20songs.abc
% abcbook-soundfonts 
% abcbook-repeats 1


